originals/mft.svg

<svg xmlns="http://www.w3.org/2000/svg" xml:space="preserve" style="fill-rule:evenodd;clip-rule:evenodd;stroke-linejoin:round;stroke-miterlimit:1.41421" viewBox="0 0 609 359"><path d="M103.439 61.926c-10.179 0-18.431-8.252-18.431-18.43 0-10.179 8.252-18.43 18.431-18.43s18.431 8.251 18.431 18.43-8.252 18.43-18.431 18.43m0-60.934c-11.952 0-22.745 4.94-30.468 12.882 7.445 7.656 12.037 18.1 12.037 29.622s-4.592 21.967-12.037 29.623C80.694 81.06 91.487 86 103.439 86c23.475 0 42.505-19.03 42.505-42.504S126.914.992 103.439.992" style="fill:#00b3f0;fill-rule:nonzero" transform="scale(4.16667)"/><path d="M42.504 61.926c-10.179 0-18.431-8.252-18.431-18.43 0-10.179 8.252-18.43 18.431-18.43s18.43 8.251 18.43 18.43-8.251 18.43-18.43 18.43m30.467-48.052C65.249 5.932 54.456.992 42.504.992 19.029.992 0 20.022 0 43.496S19.029 86 42.504 86c11.952 0 22.745-4.94 30.467-12.881-7.444-7.656-12.036-18.101-12.036-29.623s4.592-21.966 12.036-29.622" style="fill:#d91b5b;fill-rule:nonzero" transform="scale(4.16667)"/><path d="M60.932 43.501c0 11.522 4.591 21.966 12.036 29.622 7.445-7.656 12.036-18.1 12.036-29.622 0-11.523-4.591-21.967-12.036-29.622-7.445 7.655-12.036 18.099-12.036 29.622" style="fill:#19396a;fill-rule:nonzero" transform="scale(4.16667)"/></svg>

<?xml version="1.0" encoding="UTF-8" standalone="no"?>
<!DOCTYPE svg PUBLIC "-//W3C//DTD SVG 1.1//EN" "http://www.w3.org/Graphics/SVG/1.1/DTD/svg11.dtd">
<svg width="100%" height="100%" viewBox="0 0 609 359" version="1.1" xmlns="http://www.w3.org/2000/svg" xmlns:xlink="http://www.w3.org/1999/xlink" xml:space="preserve" xmlns:serif="http://www.serif.com/" style="fill-rule:evenodd;clip-rule:evenodd;stroke-linejoin:round;stroke-miterlimit:1.41421;">
    <g transform="matrix(4.16667,0,0,4.16667,0,0)">
        <path d="M103.439,61.926C93.26,61.926 85.008,53.674 85.008,43.496C85.008,33.317 93.26,25.066 103.439,25.066C113.618,25.066 121.87,33.317 121.87,43.496C121.87,53.674 113.618,61.926 103.439,61.926ZM103.439,0.992C91.487,0.992 80.694,5.932 72.971,13.874C80.416,21.53 85.008,31.974 85.008,43.496C85.008,55.018 80.416,65.463 72.971,73.119C80.694,81.06 91.487,86 103.439,86C126.914,86 145.944,66.97 145.944,43.496C145.944,20.022 126.914,0.992 103.439,0.992Z" style="fill:rgb(0,179,240);fill-rule:nonzero;"/>
        <path d="M42.504,61.926C32.325,61.926 24.073,53.674 24.073,43.496C24.073,33.317 32.325,25.066 42.504,25.066C52.683,25.066 60.934,33.317 60.934,43.496C60.934,53.674 52.683,61.926 42.504,61.926ZM72.971,13.874C65.249,5.932 54.456,0.992 42.504,0.992C19.029,0.992 0,20.022 0,43.496C0,66.97 19.029,86 42.504,86C54.456,86 65.249,81.06 72.971,73.119C65.527,65.463 60.935,55.018 60.935,43.496C60.935,31.974 65.527,21.53 72.971,13.874Z" style="fill:rgb(217,27,91);fill-rule:nonzero;"/>
        <path d="M60.932,43.501C60.932,55.023 65.523,65.467 72.968,73.123C80.413,65.467 85.004,55.023 85.004,43.501C85.004,31.978 80.413,21.534 72.968,13.879C65.523,21.534 60.932,31.978 60.932,43.501Z" style="fill:rgb(25,57,106);fill-rule:nonzero;"/>
    </g>
</svg>
